X:1
T:Title
%%score { ( 1 3 ) | ( 2 4 ) }
L:1/8
M:6/8
K:Bb
V:1 treble nm="Grand Piano"
V:3 treble 
V:2 bass 
V:4 bass 
V:1
 z3 z2[Q:1/4=100] [DF] | [DF]2 [_D=E] [=DF]2 [_EG] | [DF]3 [DB]2 [Fd] | [Ge]2 G A2 G | %4
 [DF]3- [DF]2 [DF] | [DF]2 [_D=E] [=DF]2 [_EG] | [DF]3 [=B,Fd]2 [B,Fd] | %7
 [B,=EG]2 [B,EG] [B,G]A[EB] | c3- c2 F | e2 G A2 G | [DF]3 [DB]2 [_AB] | [GB]2 [GB] cB[Gc] | %12
 [^Fd]3- [Fd]2 [D=F] | [DF]2 [Fd] [=E_d]2 [F=d] |[M:7/8] [_Af]3 [Ge]3 G |[M:3/4] A2 G A2 F | %16
[M:5/8] [DB]-[DB]- [DB]3 |[M:1/8] [DB] |[M:3/4] [Ec]6 | [DB]3 [DF]2 [DF] | G2 B ^F2 B | %21
 [DF]4- [DF][DF] | [DF]2 [Fd] [=E_d]2 [F=d] |[M:7/8] [_Af]3 [Ge]3 G |[M:3/4] A2 G A2 F | %25
[M:5/8] [DB]-[DB]- [DB]3 |] %26
V:2
 z3 z2 [B,,B,] | [B,,B,]2 [B,,B,] [B,,B,]2 [B,,B,] | [B,,B,]3 [B,,F,]2 [B,,B,] | %3
 [F,A,]2 [F,CE] [F,CE]2 [F,A,E] | [B,,A,]3- [B,,A,]2 [B,,A,] | [B,,B,]2 [B,,B,] [B,,B,]2 [B,,B,] | %6
 [B,,B,]3 G,,2 G,, | C,2 C, z A,[C,G,] | [F,A,E]3- [F,A,E]2 [F,A,E] | %9
 [F,A,G]2 [F,A,E] [F,CE]2 [F,A,E] | [B,,B,]3 [B,,B,]2 [D,B,] | [E,B,]2 [E,B,] [E,B,]2 [E,G,] | %12
 [D,A,]3- [D,A,]2 [B,,B,] | [B,,B,]2 [B,,B,] [B,,B,]2 [B,,B,] |[M:7/8] [D,B,]3 [E,B,]3 [E,B,E] | %15
[M:3/4] [F,E]2 [F,A,E] [F,CE]2 [F,A,E] |[M:5/8] [B,,B,]-[B,,B,]- [B,,B,]3 |[M:1/8] [B,,F,] | %18
[M:3/4] [F,A,]2 F, F,2 [F,A,F] | [B,,B,]3 [B,,B,]2 [B,,B,] | [E,B,E]2 [E,G,E] [E,B,E]2 [E,^F,E] | %21
 [B,,B,]4- [B,,B,][B,,B,] | [B,,B,]2 [B,,B,] [B,,B,]2 [B,,B,] |[M:7/8] [D,B,]3 [E,B,]3 [E,B,E] | %24
[M:3/4] [F,E]2 [F,A,E] [F,CE]2 [F,A,E] |[M:5/8] [B,,B,]-[B,,B,]- [B,,B,]3 |] %26
V:3
 x6 | x6 | x6 | x6 | x6 | x6 | x6 | z3 .=E3 | x6 | x6 | x6 | z3 .G3 | x6 | x6 |[M:7/8] x7 | %15
[M:3/4] x6 |[M:5/8] x5 |[M:1/8] x |[M:3/4] z2 A, A,2 d | x6 | x6 | x6 | x6 |[M:7/8] x7 | %24
[M:3/4] x6 |[M:5/8] x5 |] %26
V:4
 x6 | x6 | x6 | x6 | x6 | x6 | x6 | z3 .C,3 | x6 | x6 | x6 | x6 | x6 | x6 |[M:7/8] x7 |[M:3/4] x6 | %16
[M:5/8] x5 |[M:1/8] x |[M:3/4] x6 | x6 | x6 | x6 | x6 |[M:7/8] x7 |[M:3/4] x6 |[M:5/8] x5 |] %26

